X: 168
T:Isle Of Sky. JaW.167
M:C
Q:160
S:James Winder Ms, Lancashire, 1835-41
R:Reel
O:England
A:Wyresdale,Lancashire
H:1/8
Z:vmp.Chris Partington, Aug 2004
K:C
G|cGEG cGEG|FDDd dAAB|cGEG cGEG|FAGF ECC:|!
|:c/e/|g^fga gece|dcde cAAc|g^fgc' gece|dcde c/c/c ce|!
g^fga gece|dcde cAAc|gcac bcc'g|(f/e/d/c/) Bg ecc:|]
